X:1
T:Title
%%score 1 2 3
L:1/8
M:3/2
K:C
V:1 treble nm="Part_1"
V:2 treble nm="Part_2"
V:3 treble-8 nm="Part_3"
V:1
 G12- | G4 A8 | c6 A2 A4 | A2 c4 B2 B2 AB | c4 z4 c2 B2 | G2 A4 A2 G2 F2 | A4 z4 A4- | %7
 A2 G2 E4 ^F4 | G4 G2 G4 E2 | E6 DE D2 CD | E12 :| c8 c4 | c4 d4 e2 dc | c6 B2 B2 A2 | c6 A2 A4 | %15
 z4 c4 B4 | A2 G4 F2 G2 FG | A8 z4 | A6 B2 c4 | B4 c2 A4 G2 | G6 F2 F2 E2 | G12 :| G8 B2 c2 | %23
 d6 B2 ^c4 | d4 e6 d2 | d6 c2 c2 B2 | d6 B2 B4 | z4 d6 c2 | B2 A2 A4 B4- | B2 G2 G4 A3 B | %30
 G6 ^F2 F2 E2 | G12 :| B12- | B4 A8 | B4 G4 B2 c2 | d6 B2 ^c4 | d4 e6 d2 | d6 c2 c2 B2 | d6 B2 B4 | %39
 z4 d6 c2 | B2 A2 A4 B4- | B2 G2 G4 A3 B | G6 ^F2 F2 E2 | G12 |] %44
V:2
 C4 D2 _E2 D4 | D2 _E2 C2 DE F4 | E2 FE C4 F4 | E4 G2 ^F4 E2 | G4 A2 G4 E2- | EC E2 F4 D4 | %6
 E8 A,4- | A,4 A,4 z2 C2 | B,2 D4 E2 C4 | A,4 G,8 | C12 :| F6 E2 C2 E2 | E2 ^F2 z2 G2 G2 E2 | %13
 C4 G2 ^F4 E2 | G4 E4 z4 | E2 C2 G2 A2 F2 F2- | F2 E2 F4 D4 | E4 F2 A4 G2 | F4 z4 E3 G | G4 F6 E2 | %20
 E4 D3 B, C4 | D12 :| D4 E2 F2 G4- | G2 F3 D A3 G G2- | G2 ^F2 G4 z2 A2 | B2 A2 G2 A3 ^F G2 | %26
 A2 F4 E2 G4 | F2 E2 D2 G3 E F2 | G4 z4 E4 | E4 C2 G3 ^F G2 | D2 E2 D2 ^C4 B,2 | D12 :| G8 G2 A2 | %33
 ^F4 F8 | E2 D4 E2 G4- | G2 F3 D A3 G G2- | G2 ^F2 G4 z2 A2 | B2 A2 G2 A3 ^F G2 | A2 F4 E2 G4 | %39
 F2 E2 D2 G3 E F2 | G4 z4 E4 | E4 C2 G3 ^F G2 | D2 E2 D2 ^C4 B,2 | D12 |] %44
V:3
[K:F] c6 B2 G4 | B4 c2 A2 G2 F2 | A8 F4 | c4 d8 | c4 f2 e2 c4- | c4 d4 B4 | A4 c8 | z4 c4 A4 | %8
 G8 A4 | c4 B8 | A12 :| F8 A4- | A4 G4 c4 | e4 d8 | c8 f2 e2 | c2 e4 f2 d4 | c4 d4 B4 | A8 A4 | %18
 z4 d4 A4 | G4 A4 c4- | c4 A8 | G12 :| G8 G4 | B4 d4 e4 | d4 c4 f4- | f4 e8 | d8 G4 | c4 B4 A4 | %28
 G2 d4 ^f2 g4- | g4 e4 d2 G2 | =B2 c2 A8 | G12 :| G12 | d12 | G8 G4 | B4 d4 e4 | d4 c4 f4- | %37
 f4 e8 | d8 G4 | c4 B4 A4 | G2 d4 ^f2 g4- | g4 e4 d2 G2 | =B2 c2 A8 | G12 |] %44

